!!!COM: Jules Massenet
!!!CNT: Francais
!!!TXO: Francais
!!!OTL: Sonnet matinal
!!!LYR: Armand Silvestre
!!!OPR: Poe^me d'Avril
!!!ONM: No. 2
!!!ENC: Jacob Pegg
!!!YOR: Romantic French Song 1830-1870 - David Tunley, ed.,
!!!YOR: New York: Garland Publishing, Inc., 1995, Vol. 6
!!!ODT: 1866/
!!NB: Vocal melody and text only encoded.
!!NB: First instance of melodic material only encoded.
**kern	**silbe
*clef G2	*
*k[b-e-a-]	*
*M2/2	*
!!created: 8/22/03 13:21
!!proofed and posted: 12/13/03 23:04
!!edit time: 58 min.
=1	=1
1r	.
=2	=2
2r	.
2r	.
=3	=3
2r	.
4r	.
{8cc	{Les
8cc	E-
=4	=4
2cc	-toi-
8cc	-les
8cc	ef-
8b-	-fa-
8a-	-rou-
=5	=5
1a-	-che/-
=6	=6
4a-}	-es}
4r	.
2r	.
=7	=7
2r	.
{2b-	{Vien-
=8	=8
4.b-	-nent
8b-	de
8b-	s'en-
8cc	-vo-
8dd	-ler
8b-	des
=9	=9
[1g	cieux.
=10	=10
4g]}	|}
4r	.
2r	.
=11	=11
1r	.
=12	=12
2r	.
2r	.
=13	=13
{2ee-	{J'en
2dd	sais
=14	=14
2cc	deux
8b-	qui
8f	se
8g	sont
8a-	ca-
=15	=15
(2b-	-che/-
2a-)	|
=16	=16
2g}	-es,}
4r	.
{4g	{Mi-
=17	=17
4.g	-gnon-
8g	-ne,
4an	dans
4b-	vos
=18	=18
(b-q	jo-
2dd)	|
2cc	-lis
=19	=19
2.b-}	yeux;}
4r	.
!!20-22 like 13-16
=23	=23
2r	.
4r	.
{4g	{et
=24	=24
(6g	sous
6g	vos
6g)	pau-
(6a	-ple\-
6b-	-res
6cc)	pen-
=25	=25
(2ee-	-che/-
2b-)	|
=26	=26
2e-}	-es:}
2r	.
=27	=27
1r	.
=28	=28
4r	.
8r	.
{16g-	{At-
16g-	-ten-
[2dd-	-dez!
=29	=29
4dd-]}	|}
4r	.
{8dd-	{Mes
8a-	bai-
8b-	-sers
8cc-	jo-
=30	=30
8b-	-yeux
8g-	les
8a-	au-
8b-	-ront
(b-q	bien-
8a-)	|
8f	-to^t
8g-	de/-
8a-	-ni-
=31	=31
(2g-	-che/-
8ee-)}	-es!}
8r	.
4r	.
=32	=32
8r	.
{(8b-	{Vous
8b-	fei-
8b-	-gnez
8b-	de
8b-	dor-
8b-	-mir
8b-)	en-
=33	=33
2an}	-cor:}
2r	.
=34	=34
8r	.
{(8b-	{E-
8b-	-veil-
8b-	-les~
8b-	~vous,
8b-	mon
8b-	doux
8b-)	tre/-
=35	=35
2ee-}	-sur!}
8r	.
{8a-	{e/-
8a-	-veil-
8a-	-lez~
=36	=36
2b-}	~vous,}
2r	.
!! the a- a- a- b- motif repeats twice more in mm. 37-39
!! 40-43 same as 10-16
=44	=44
{2ee-	{Le
4dd	ciel
4dd	de/-
=45	=45
4cc	-sert
4cc	est
4b-	plein
4b-	d'en-
=46	=46
[1cc	-nui,
=47	=47
4cc]}	|}
4r	.
{[2ff	{Ah!
=48	=48
(2.ff]	|
[4f)	|
=49	=49
4f]}	|}
4r	.
{6f	{Ou-
6a-	-vrez
6g	les
=50	=50
3g}	yeux,}
6r	.
{6a-	{Et
6cc	ren-
6b-	-dez~
=51	=51
4b-	~lui
4cc	les
4dd	deux
4ee-	e/-
=52	=52
(4ff	-toi-
4gg)	|
(6ff	-les
6ff	en-
6cc)	-vo-
=53	=53
2.ee-	-le/-
8ee-}	-es.}
8r	.
=54	=54
2r	.
8r	.
{(8b-	{E-
8b-	-veil-
8b-)	-lez~
=55	=55
2b-}	~vous,}
8r	.
{8a-	{Mon
8a-	doux
8cc	tre/-
=56	=56
2g}	-sor!}
8r	.
{(8a-	{E-
8a-	-veil-
8cc)	-lez~
=57	=57
[1ee-	~vous!
=58	=58
2ee-]}	|}
2r	.
*-	*-
